assets/icons/ic_wallet.svg

<svg fill="none" height="24" viewBox="0 0 24 24" width="24" xmlns="http://www.w3.org/2000/svg"><path clip-rule="evenodd" d="m16.7584 1.50001c-.2762-.47829-.8877-.642163-1.366-.36602l-6.6962 3.86601h-5.6962c-1.10456 0-2 .89541-2 2v14c0 1.1046.89544 2 2 2h18c1.1046 0 2-.8954 2-2v-.75-3.75-5-3.25-1.25c0-1.10458-.8954-2-2-2h-2.2209zm4.2416 6.74802v-1.24803h-18v14h18v-.748c0-.0007 0-.0013 0-.002v-2.75h-3.375c-1.9555 0-3.625-1.5216-3.625-3.5s1.6695-3.5 3.625-3.5h3.375v-2.25c0-.00066 0-.00132 0-.00197zm0 4.25197h-3.375c-.944 0-1.625.717-1.625 1.5s.681 1.5 1.625 1.5h3.375zm-4.5346-7.50742-3.7493-.00407 2.8102-1.62247z" fill="#fff" fill-rule="evenodd"/></svg>

<svg width="24" height="24" viewBox="0 0 24 24" fill="none" xmlns="http://www.w3.org/2000/svg">
<path fill-rule="evenodd" clip-rule="evenodd" d="M16.7584 1.50001C16.4822 1.02172 15.8707 0.857847 15.3924 1.13399L8.6962 5H3C1.89544 5 1 5.89541 1 7V21C1 22.1046 1.89544 23 3 23H21C22.1046 23 23 22.1046 23 21L23 20.25L23 16.5V11.5L23 8.25L23 7C23 5.89542 22.1046 5 21 5H18.7791L16.7584 1.50001ZM21 8.24803V7H3V21H21V20.252C21 20.2513 21 20.2507 21 20.25L21 17.5H17.625C15.6695 17.5 14 15.9784 14 14C14 12.0216 15.6695 10.5 17.625 10.5H21L21 8.25C21 8.24934 21 8.24868 21 8.24803ZM21 12.5H17.625C16.681 12.5 16 13.217 16 14C16 14.783 16.681 15.5 17.625 15.5H21V12.5ZM16.4654 4.99258L12.7161 4.98851L15.5263 3.36604L16.4654 4.99258Z" fill="white"/>
</svg>
